icon/fa/earth-africa.svg

<svg xmlns="http://www.w3.org/2000/svg" viewBox="0 0 512 512"><!--! Font Awesome Free 6.1.2 by @fontawesome - https://fontawesome.com License - https://fontawesome.com/license/free (Icons: CC BY 4.0, Fonts: SIL OFL 1.1, Code: MIT License) Copyright 2022 Fonticons, Inc.--><path d="M512 256c0 141.4-114.6 256-256 256S0 397.4 0 256 114.6 0 256 0s256 114.6 256 256zM177.8 63.19l10 17.43c2.7 4.84 4.2 10.31 4.2 15.88v41.4c0 3.9 1.6 7.7 4.3 10.4 6.3 6.3 16.5 4.8 22-1.2l13.6-17c4.7-5.9 12.9-7.7 19.7-4.3l15.2 7.6c3.4 1.7 6.3 2.6 11 2.6 6.5 0 12.8-2.6 17.4-7.2l3.9-3.9c2.9-3.8 7.4-3.7 11-1.8l29.3 14.6c7.7 3.9 12.6 11.8 12.6 20.4 0 10.5-7.1 19.7-17.3 22.2l-35.4 8.9c-7.4 1.8-15.1 1.5-23.2-.9l-32-10.6c-2.4-1.1-5.9-1.7-9.3-1.7-7 0-14.7 2.3-19.4 6.5L176 212c-10.1 7.6-16 19.4-16 32v28c0 26.5 21.5 48 48 48h32c8.8 0 16 7.2 16 16v48c0 17.7 14.3 32 32 32 10.1 0 19.6-4.7 25.6-12.8l25.6-34.1c8.3-12 12.8-24.6 12.8-38.4v-12.1c0-3.9 2.6-7.3 6.4-8.2l5.3-1.3c11.9-3 20.3-13.7 20.3-26 0-8-2.8-13.9-7.8-18.9l-33.5-33.5c-4.6-4.6-4.6-9.7 0-13.4 5.7-5.7 14.1-7.7 21.8-5.1l14.1 4.7c12.3 3.2 25.7-1.5 31.5-13.1 3.5-7 11.2-10.7 18-9.2l28.3 5.5C431.1 112.4 351.5 48 256 48c-27.7 0-54.9 5.4-78.2 15.19z"/></svg>

<svg xmlns="http://www.w3.org/2000/svg" viewBox="0 0 512 512" height="1em" width="1em">
<!--! Font Awesome Free 6.1.2 by @fontawesome - https://fontawesome.com License - https://fontawesome.com/license/free (Icons: CC BY 4.0, Fonts: SIL OFL 1.1, Code: MIT License) Copyright 2022 Fonticons, Inc.-->
  <path d="M512 256C512 397.4 397.4 512 256 512C114.6 512 0 397.4 0 256C0 114.6 114.6 0 256 0C397.4 0 512 114.6 512 256zM177.8 63.19L187.8 80.62C190.5 85.46 192 90.93 192 96.5V137.9C192 141.8 193.6 145.6 196.3 148.3C202.6 154.6 212.8 153.1 218.3 147.1L231.9 130.1C236.6 124.2 244.8 122.4 251.6 125.8L266.8 133.4C270.2 135.1 273.1 136 277.8 136C284.3 136 290.6 133.4 295.2 128.8L299.1 124.9C302 121.1 306.5 121.2 310.1 123.1L339.4 137.7C347.1 141.6 352 149.5 352 158.1C352 168.6 344.9 177.8 334.7 180.3L299.3 189.2C291.9 191 284.2 190.7 276.1 188.3L244.1 177.7C241.7 176.6 238.2 176 234.8 176C227.8 176 220.1 178.3 215.4 182.5L176 212C165.9 219.6 160 231.4 160 244V272C160 298.5 181.5 320 208 320H240C248.8 320 256 327.2 256 336V384C256 401.7 270.3 416 288 416C298.1 416 307.6 411.3 313.6 403.2L339.2 369.1C347.5 357.1 352 344.5 352 330.7V318.6C352 314.7 354.6 311.3 358.4 310.4L363.7 309.1C375.6 306.1 384 295.4 384 283.1C384 275.1 381.2 269.2 376.2 264.2L342.7 230.7C338.1 226.1 338.1 221 342.7 217.3C348.4 211.6 356.8 209.6 364.5 212.2L378.6 216.9C390.9 220.1 404.3 215.4 410.1 203.8C413.6 196.8 421.3 193.1 428.1 194.6L456.4 200.1C431.1 112.4 351.5 48 256 48C228.3 48 201.1 53.4 177.8 63.19L177.8 63.19z"/>
</svg>
